X:1
T:In dubbio di mio stato (2nd version)
T:Orlando Lasso
T:In dubbio di mio stato (2nd version)
C:Orlando Lasso
%%score [ 1 2 3 4 ]
L:1/8
Q:1/4=72
M:4/4
K:C
V:1 alto1 nm="Canto" snm="C"
V:2 alto2 nm="Alto" snm="A"
V:3 alto nm="Tenore" snm="T"
V:4 bass3 nm="Basso" snm="B"
V:1
 x8 | z2 z2 z2 x2 | z4 A4 | c4 G4 | _B6 B2 | A4 A4 | _B6 A2 | G4 ^F4 | G4 G4 | G2 A4 c2 | %10
w: ||In|dub- bio|di mio|sta- to,hor|pian- go hor|can- to,E|te- mo e|spe- ro et in|
 B2 c4 _B2- | B2 A4 G2 | A4 z2 A2- | A2 F2 G2 A2- | A2 !courtesy!=G2 z2 A2 | A2 A2 B2 B2 | c8 | %17
w: so- spi- ri e in|_ ri- *|me, Sfo-|* go il mio in- car-|* co: A-|mor tut- te sue|li-|
 c8 | z4 c4- | c2 c2 B4 | A2 A2 G2 G2 | F6 E2 | D4 E4 | z8 | z2 c2 A2 B2 | c4 z4 | c4 c2 B2 | %27
w: me|U-|* sa so-|pra'l mio cor, af-|flit- to|tan- to.||Hor fia gia-|mai|che quel bel|
 A2 ^G2 A4 | ^G4 B4 | B2 c2 A2 B2 | c2 c2 B2 A2 | B4 ^c4 | z8 | z2 A4 G2 | _B4 A4 | z2 E4 D2 | %36
w: vi- so san-|to Ren-|da a que- sti oc- chi|le lor lu- ci|pri- me?||(Las- so,|non so,|Las- so,|
 F4 E4 | z8 | A8 | A4 ^G4 | A4 B4- | B2 A2 A4- | A4 ^G4 | A2 E2 E2 E2 | ^F4 G4 | A4 A4 | _B8 | A8 | %48
w: non so||che|di me|stes- so e-|* sti- *||me) O li con-|dan- ni a|sem- pi-|ter-|no|
 G8 | G8 | z4 c4 | B4 A4 | G4 F4 | E4 A4- | A4 c4- | c4 B2 A2 | B4 B4 | A8- | A8 | !fermata!A8 |] %60
w: pian-|to,|O|li con-|dan- ni a|sem- pi-|* ter-||* no|pian-||to?|
 z8 | z8 | z8 | z8 |] %64
w: ||||
V:2
 x8 | z2 z2 z2 x2 | D4 F4 | E2 C4 E2 | D2 G2 G4 | C2 F4 F2 | F6 F2 | D4 D4 | E4 E4 | E2 F4 A2 | %10
w: ||In dub-|bio di mio|sta- to,hor pian-|go hor, pian- go hor,|pian- go hor|can- to,E|te- mo e|spe- ro et in|
 G6 G2 | F2 E4 D2- | D2 ^CB, C4 | z8 | D4 E2 E2 | ^F2 F2 G2 G2 | A2 A2 G4 | A4 G4- | G2 G2 G4 | %19
w: so- spi-|ri e in ri- *|* * * me,||Sfo- go il mio in-|car- co:A- mor tut-|te sue li-|me U-|* sa so-|
 A4 G4 | E6 E2 | C6 C2- | C2 B,2 C4 | E4 C2 D2 | E2 G2 ^F2 G2- | GF E2 D2 E2 | G2 A4 G2 | %27
w: pra'l mio|cor, af-|flit- to|_ tan- to.|Hor fia gia-|mai, Hor fia gia-|* * * mai che|quel bel vi-|
 F2 E3 D/C/ D2 | E4 ^G4 | ^G2 A2 ^F2 =G2 | E2 A2 ^G2 A2- | A2 ^G2 A4 | z4 z2 D2- | D2 C2 E4 | %34
w: so san- * * *|to Ren-|da a que- sti oc- chi|le lor lu- ci|_ pri- me?|(Las-|* so, non|
 D6 A2 | c4 B4 | A2 A2 G2 A2 | E2 G3 F D2 | E4 F2 D2- | D2 C2 B,2 E2- | E2 ^F2 G2 G2 | C4 D4 | E8 | %43
w: so, Las-|so, non|so che di me|stes- so e- * *|sti- me, Las-|* so, non so|_ che di me|stes- so e-|sti-|
 ^C6 C2 | D2 D2 E4 | F4 F4- | F4 F4 | F4 F4 | D8 | E4 G4- | G4 ^F4 | G4 E4- | E4 A4- | A2 GF E4 | %54
w: me) O|li con- dan-|ni a sem-|* pi-|ter- no|pian-|to, O|_ li|con- dan-|* ni a|_ _ _ _|
 F4 A4 | G6 F2 | E4 D4 | ^C4 D4 | E8 | ^F8 |] z8 | z8 | z8 | z8 |] %64
w: sem- pi-|ter- *|* no|pian- *||to?|||||
V:3
 x8 | z2 z2 z2 x2 | z8 | z2 E4 G2- | G2 D2 D2 D2 | F4 C4 | D6 C2 | _B,4 A,4 | C4 C4 | C2 D4 F2 | %10
w: |||In dub-|* bio di mio|sta- to,hor|pian- go hor|can- to,E|te- mo e|spe- ro et in|
 D2 E4 D2- | D2 ^C2 D4 | E8 | F4 E2 F2- | F2 D4 ^C2 | D4 D4 | F2 F4 E2 | F4 E4- | E2 E2 E4 | %19
w: so- spi- ri e in|_ ri- *|me,|Sfo- go il mio in-|* car- co:A-|mor tut-|te sue li-|me U-|* sa so-|
 F4 D4 | C4 B,4 | A,6 G,2 | G,4 G,2 G2- | G2 E2 ^F2 G2- | G2 E2 D2 D2 | E2 G2 G3 F | E2 E2 F2 D2- | %27
w: pra'l mio|cor, af-|flit- to|tan- to. Hor|_ fia gia- mai,|_ Hor fia gia-|mai che quel _|_ bel vi- so|
 DC B,2 A,4 | B,4 E4 | E2 A,2 D2 G,2 | A,2 A,2 E2 F2 | E4 A,4 | E4 D2 F2- | F2 E2 z4 | z2 G4 ^F2 | %35
w: _ _ _ san-|to Ren-|da a que- sti oc- chi|le lor lu- ci|pri- me?|(Las- so, non|_ so,|Las- so,|
 A2 G2 G4 | C2 C2 C4 | C2 E3 D D2- | D2 ^C2 D2 F2- | F2 E4 B,2 | C4 D4- | D2 C2 A,4 | B,8 | %43
w: non so che|di me stes-|so e- sti- * *|* * me, che|_ di me|stes- so e-||sti-|
 A,4 z2 A,2 | A,2 A,2 C4- | C4 C4 | D6 D2 | C4 C4- | C4 B,4 | C4 E4 | D4 C4 | D4 C4 | B,2 ^C2 D4- | %53
w: me) O|li con- dan-|* ni a|sem- pi-|ter- no|_ pian-|to, O|li con-|dan- ni a|sem- pi- ter-|
 D4 C2 B,2 | C4 F4 | E4 D4 | G6 F2 | E4 D4- | D4 ^C4 | D8 |] z8 | z8 | z8 | z8 |] %64
w: * no pian-|to, a|sem- pi-|ter- *|* no|_ pian-|to?|||||
V:4
 x8 | z2 z2 z2 x2 | z8 | A,4 C4 | G,2 G,4 G,2 | F,4 F,4 | _B,6 F,2 | G,4 D,4 | C,4 C,4 | %9
w: |||In dub-|bio di mio|sta- to,hor|pian- go hor|can- to,E|te- mo e|
 C,2 F,4 F,2 | G,2 C,2 G,4 | A,4 _B,4 | A,8 | D4 C2 A,2 | _B,4 A,4 | z2 D,2 G,2 G,2 | F,2 F,2 C4 | %17
w: spe- ro et in|so- spi- ri e in|ri- *|me,|Sfo- go il mio in-|car- co:|A- mor tut-|te sue li-|
 F,4 C4- | C2 C2 C4 | F,4 G,4 | A,4 E,4 | F,6 C,2 | G,4 C,4 | C4 A,2 B,2 | C4 z2 G,2 | C4 B,2 C2- | %26
w: me U-|* sa so-|pra'l mio|cor, af-|flit- to|tan- to.|Hor fia gia-|mai che|quel bel vi-|
 CB,A,G, F,2 G,2 | D,2 E,2 F,4 | E,8 | z8 | z8 | z4 z2 A,2- | A,2 G,2 _B,4 | A,4 C4 | G,2 G,2 D4 | %35
w: * * * * * so|san- * *|to|||(Las-|* so, non|so che|di me stes-|
 C4 G,4 | F,4 z2 A,2- | A,2 G,2 _B,4 | A,4 D,4 | A,4 E,4 | A,4 G,4 | F,8 | E,8 | A,,2 A,2 A,2 A,2 | %44
w: so e- sti-|me, Las-|* so, non|so che|di me|stes- so e-|sti-||me) O li con-|
 D,4 C,4 | F,4 F,4 | _B,,4 B,,4 | F,8 | G,8 | z4 C4 | B,4 A,4 | G,4 A,4 | E,4 D,4 | A,8 | F,8 | %55
w: dan- ni a|sem- pi-|ter- no|pian-|to,|O|li con-|dan- ni a|sem- pi-|ter-|no|
 G,8- | G,8 | A,8- | A,8 | D,8 |] z8 | z8 | z8 | z8 |] %64
w: pian-||||to?|||||

